;Generated by Cura LulzBot Edition GCodeWriter Version: 3.6.37
;FLAVOR:Marlin
;TIME:8059
;Filament used: 4.44864m
;Layer height: 0.25
;Generated with Cura_SteamEngine 3.6.37-macos
M82 ;absolute extrusion mode
;This G-Code has been generated specifically for the LulzBot Mini 2 with SE 0.5mm Tool Head
;
;The following lines can be uncommented for printer specific fine tuning
;More information can be found at https://marlinfw.org/meta/gcode/
;
;M92 E420                 ;Set Axis Steps-per-unit
;M301 P21.0 I1.78 D61.93  ;Set Hotend PID
;M906 E960                ;TMC Motor Current
;
M73 P0                  ; clear GLCD progress bar
M75 					; Start GLCD Print Timer
G26 					; clear potential 'probe fail' condition
M107 					; disable fans
M420 S0                 ; disable leveling matrix
G90 					; absolute positioning
M82 					; set extruder to absolute mode
G92 E0 					; set extruder position to 0
M140 S60.0 ; start bed heating up
G28 					; home all axes
G0 X0 Y187 Z156 F200 			; move away from endstops
M117 Mini 2 Wiping...			; progress indicator message on LCD
M109 R140 	; soften filament before retraction
G1 E-15 F75 				; retract filament
M109 R140                  ; wait for extruder to reach wiping temp
;M206 X0 Y0 Z0              ; uncomment to adjust wipe position (+X ~ nozzle moves left)(+Y ~ nozzle moves forward)(+Z ~ nozzle moves down)
G12                         ; wiping sequence
M206 X0 Y0 Z0               ; reseting stock nozzle position ### CAUTION: changing this line can affect print quality ###
G28 X0 Y0				; home X and Y
M109 R140	; wait for extruder to reach probe temp
M204 S300				; set probing acceleration
G29					; start auto-leveling sequence
M420 S1                     ; enable leveling matrix
M425 Z			     		; use measured Z backlash for compensation
M425 Z F0		     		; turn off measured Z backlash compensation. (if activated in the quality settings, this command will automatically be ignored)
M204 S2000				; restore standard acceleration
G1 X5 Y15 Z10 F5000			; move up off last probe point
G4 S1					; pause
M400					; wait for moves to finish
M117 Heating...				; progress indicator message on LCD
M109 R210 ; wait for extruder to reach initial printing temp
M190 R60.0 ; wait for bed to reach printing temp
G1 Z2 E0 F75				; prime tiny bit of filament into the nozzle
M117 Mini 2 Printing...		; progress indicator message on LCD

M221 S100 T0
G92 E0
G1 F600 E-1.75
;LAYER_COUNT:40
;LAYER:0
M107
G0 F2625 X38.886 Y31.148 Z0.425
;TYPE:SKIRT
G1 F600 E0
G1 F900 X39.217 Y30.76 E0.01699
G1 X39.604 Y30.429 E0.03395
G1 X40.038 Y30.162 E0.05092
G1 X40.509 Y29.967 E0.06791
G1 X41.004 Y29.848 E0.08486
G1 X41.516 Y29.807 E0.10197
G1 X127.735 Y29.808 E2.97396
G1 X128.243 Y29.848 E2.99093
G1 X128.738 Y29.967 E3.00789
G1 X129.209 Y30.162 E3.02487
G1 X129.644 Y30.428 E3.04186
G1 X130.031 Y30.758 E3.0588
G1 X130.363 Y31.145 E3.07578
G1 X130.629 Y31.58 E3.09277
G1 X130.825 Y32.05 E3.10973
G1 X130.944 Y32.545 E3.12669
G1 X130.985 Y33.058 E3.14383
G1 X130.986 Y76.677 E4.5968
G1 X131.199 Y82.147 E4.77914
G1 X131.201 Y82.274 E4.78337
G1 X131.192 Y122.935 E6.13781
G1 X131.152 Y123.443 E6.15478
G1 X131.033 Y123.938 E6.17174
G1 X130.838 Y124.409 E6.18872
G1 X130.572 Y124.843 E6.20567
G1 X130.241 Y125.231 E6.22266
G1 X129.854 Y125.562 E6.23963
G1 X129.42 Y125.829 E6.2566
G1 X128.949 Y126.024 E6.27358
G1 X128.454 Y126.143 E6.29054
G1 X127.942 Y126.184 E6.30765
G1 X86.942 Y126.182 E7.67337
G1 X86.567 Y126.16 E7.68589
G1 X83.254 Y125.776 E7.79698
G1 X77.747 Y125.385 E7.98088
G1 X73.639 Y125.298 E8.11775
G1 X41.514 Y125.288 E9.18785
G1 X41.006 Y125.248 E9.20482
G1 X40.511 Y125.129 E9.22178
G1 X40.04 Y124.934 E9.23876
G1 X39.605 Y124.668 E9.25575
G1 X39.218 Y124.337 E9.27271
G1 X38.887 Y123.95 E9.28967
G1 X38.62 Y123.516 E9.30665
G1 X38.425 Y123.045 E9.32363
G1 X38.306 Y122.55 E9.34058
G1 X38.265 Y122.034 E9.35783
G1 X38.315 Y76.167 E10.88567
G1 X38.257 Y73.797 E10.96464
G1 X38.256 Y73.717 E10.96731
G1 X38.266 Y33.056 E12.32174
G1 X38.306 Y32.548 E12.33872
G1 X38.425 Y32.053 E12.35567
G1 X38.62 Y31.582 E12.37265
G1 X38.886 Y31.148 E12.38961
G1 F600 E10.63961
;MESH:
G0 F2625 X40.841 Y33.812
G0 X42.27 Y33.812
G0 X81.686 Y73.228
G0 X81.756 Y73.298
;TYPE:WALL-INNER
G1 F600 E12.38961
G1 F900 X42.256 Y73.298 E13.70537
G1 X42.256 Y33.798 E15.02113
G1 X81.756 Y33.798 E16.33689
G1 X81.756 Y73.298 E17.65265
G0 F2625 X82.256 Y73.798
;TYPE:WALL-OUTER
G1 F900 X41.756 Y73.798 E19.00172
G1 X41.756 Y33.298 E20.35079
G1 X82.256 Y33.298 E21.69986
G1 X82.256 Y73.798 E23.04893
G0 F2625 X82.006 Y73.798
G0 X81.686 Y73.228
G0 X81.266 Y72.808
;TYPE:SKIN
G1 F900 X42.746 Y72.808 E24.33204
G1 X42.746 Y34.288 E25.61516
G1 X81.266 Y34.288 E26.89827
G1 X81.266 Y72.808 E28.18139
G0 F2625 X81.04 Y35.078
G1 F900 X80.475 Y34.513 E28.208
G0 F2625 X79.768 Y34.513
G1 F900 X81.04 Y35.785 E28.26792
G0 F2625 X81.04 Y36.493
G1 F900 X79.06 Y34.513 E28.3612
G0 F2625 X78.353 Y34.513
G1 F900 X81.04 Y37.2 E28.48778
G0 F2625 X81.04 Y37.907
G1 F900 X77.646 Y34.513 E28.64766
G0 F2625 X76.939 Y34.513
G1 F900 X81.04 Y38.614 E28.84085
G0 F2625 X81.04 Y39.321
G1 F900 X76.232 Y34.513 E29.06735
G0 F2625 X75.525 Y34.513
G1 F900 X81.04 Y40.028 E29.32715
G0 F2625 X81.04 Y40.735
G1 F900 X74.818 Y34.513 E29.62025
G0 F2625 X74.111 Y34.513
G1 F900 X81.04 Y41.442 E29.94666
G0 F2625 X81.04 Y42.149
G1 F900 X73.404 Y34.513 E30.30638
G0 F2625 X72.696 Y34.513
G1 F900 X81.04 Y42.857 E30.69945
G0 F2625 X81.04 Y43.564
G1 F900 X71.989 Y34.513 E31.12582
G0 F2625 X71.282 Y34.513
G1 F900 X81.04 Y44.271 E31.5855
G0 F2625 X81.04 Y44.978
G1 F900 X70.575 Y34.513 E32.07849
G0 F2625 X69.868 Y34.513
G1 F900 X81.04 Y45.685 E32.60478
G0 F2625 X81.04 Y46.392
G1 F900 X69.161 Y34.513 E33.16437
G0 F2625 X68.454 Y34.513
G1 F900 X81.04 Y47.099 E33.75727
G0 F2625 X81.04 Y47.806
G1 F900 X67.747 Y34.513 E34.38348
G0 F2625 X67.04 Y34.513
G1 F900 X81.04 Y48.513 E35.04299
G0 F2625 X81.04 Y49.22
G1 F900 X66.332 Y34.513 E35.73583
G0 F2625 X65.625 Y34.513
G1 F900 X81.04 Y49.928 E36.462
G0 F2625 X81.04 Y50.635
G1 F900 X64.918 Y34.513 E37.22147
G0 F2625 X64.211 Y34.513
G1 F900 X81.04 Y51.342 E38.01425
G0 F2625 X81.04 Y52.049
G1 F900 X63.504 Y34.513 E38.84034
G0 F2625 X62.797 Y34.513
G1 F900 X81.04 Y52.756 E39.69973
G0 F2625 X81.04 Y53.463
G1 F900 X62.09 Y34.513 E40.59243
G0 F2625 X61.383 Y34.513
G1 F900 X81.04 Y54.17 E41.51843
G0 F2625 X81.04 Y54.877
G1 F900 X60.676 Y34.513 E42.47773
G0 F2625 X59.969 Y34.513
G1 F900 X81.04 Y55.584 E43.47035
G0 F2625 X81.04 Y56.292
G1 F900 X59.261 Y34.513 E44.49631
G0 F2625 X58.554 Y34.513
G1 F900 X81.04 Y56.999 E45.55558
G0 F2625 X81.04 Y57.706
G1 F900 X57.847 Y34.513 E46.64816
G0 F2625 X57.14 Y34.513
G1 F900 X81.04 Y58.413 E47.77404
G0 F2625 X81.04 Y59.12
G1 F900 X56.433 Y34.513 E48.93322
G0 F2625 X55.726 Y34.513
G1 F900 X81.04 Y59.827 E50.12571
G0 F2625 X81.04 Y60.534
G1 F900 X55.019 Y34.513 E51.35151
G0 F2625 X54.312 Y34.513
G1 F900 X81.04 Y61.241 E52.61061
G0 F2625 X81.04 Y61.948
G1 F900 X53.605 Y34.513 E53.90302
G0 F2625 X52.897 Y34.513
G1 F900 X81.04 Y62.656 E55.22878
G0 F2625 X81.04 Y63.363
G1 F900 X52.19 Y34.513 E56.58784
G0 F2625 X51.483 Y34.513
G1 F900 X81.04 Y64.07 E57.98021
G0 F2625 X81.04 Y64.777
G1 F900 X50.776 Y34.513 E59.40589
G0 F2625 X50.069 Y34.513
G1 F900 X81.04 Y65.484 E60.86487
G0 F2625 X81.04 Y66.191
G1 F900 X49.362 Y34.513 E62.35715
G0 F2625 X48.655 Y34.513
G1 F900 X81.04 Y66.898 E63.88275
G0 F2625 X81.04 Y67.605
G1 F900 X47.948 Y34.513 E65.44164
G0 F2625 X47.241 Y34.513
G1 F900 X81.04 Y68.312 E67.03384
G0 F2625 X81.04 Y69.019
G1 F900 X46.533 Y34.513 E68.65937
G0 F2625 X45.826 Y34.513
G1 F900 X81.04 Y69.727 E70.31823
G0 F2625 X81.04 Y70.434
G1 F900 X45.119 Y34.513 E72.0104
G0 F2625 X44.412 Y34.513
G1 F900 X81.04 Y71.141 E73.73587
G0 F2625 X81.04 Y71.848
G1 F900 X43.705 Y34.513 E75.49465
G0 F2625 X42.998 Y34.513
G1 F900 X81.04 Y72.555 E77.28673
G0 F2625 X80.36 Y72.582
G1 F900 X42.97 Y35.191 E79.04812
G0 F2625 X42.97 Y35.899
G1 F900 X79.653 Y72.582 E80.77618
G0 F2625 X78.946 Y72.582
G1 F900 X42.97 Y36.606 E82.47094
G0 F2625 X42.97 Y37.313
G1 F900 X78.239 Y72.582 E84.13239
G0 F2625 X77.532 Y72.582
G1 F900 X42.97 Y38.02 E85.76053
G0 F2625 X42.97 Y38.727
G1 F900 X76.825 Y72.582 E87.35537
G0 F2625 X76.117 Y72.582
G1 F900 X42.97 Y39.434 E88.91688
G0 F2625 X42.97 Y40.141
G1 F900 X75.41 Y72.582 E90.44509
G0 F2625 X74.703 Y72.582
G1 F900 X42.97 Y40.848 E91.93999
G0 F2625 X42.97 Y41.555
G1 F900 X73.996 Y72.582 E93.40158
G0 F2625 X73.289 Y72.582
G1 F900 X42.97 Y42.263 E94.82985
G0 F2625 X42.97 Y42.97
G1 F900 X72.582 Y72.582 E96.22481
G0 F2625 X71.875 Y72.582
G1 F900 X42.97 Y43.677 E97.58647
G0 F2625 X42.97 Y44.384
G1 F900 X71.168 Y72.582 E98.91482
G0 F2625 X70.461 Y72.582
G1 F900 X42.97 Y45.091 E100.20986
G0 F2625 X42.97 Y45.798
G1 F900 X69.753 Y72.582 E101.47158
G0 F2625 X69.046 Y72.582
G1 F900 X42.97 Y46.505 E102.69999
G0 F2625 X42.97 Y47.212
G1 F900 X68.339 Y72.582 E103.8951
G0 F2625 X67.632 Y72.582
G1 F900 X42.97 Y47.919 E105.0569
G0 F2625 X42.97 Y48.627
G1 F900 X66.925 Y72.582 E106.18537
G0 F2625 X66.218 Y72.582
G1 F900 X42.97 Y49.334 E107.28053
G0 F2625 X42.97 Y50.041
G1 F900 X65.511 Y72.582 E108.34239
G0 F2625 X64.804 Y72.582
G1 F900 X42.97 Y50.748 E109.37095
G0 F2625 X42.97 Y51.455
G1 F900 X64.097 Y72.582 E110.3662
G0 F2625 X63.39 Y72.582
G1 F900 X42.97 Y52.162 E111.32814
G0 F2625 X42.97 Y52.869
G1 F900 X62.682 Y72.582 E112.25676
G0 F2625 X61.975 Y72.582
G1 F900 X42.97 Y53.577 E113.15205
G0 F2625 X42.97 Y54.284
G1 F900 X61.268 Y72.582 E114.01403
G0 F2625 X60.561 Y72.582
G1 F900 X42.97 Y54.991 E114.8427
G0 F2625 X42.97 Y55.698
G1 F900 X59.854 Y72.582 E115.63807
G0 F2625 X59.147 Y72.582
G1 F900 X42.97 Y56.405 E116.40014
G0 F2625 X42.97 Y57.113
G1 F900 X58.44 Y72.582 E117.12888
G0 F2625 X57.733 Y72.582
G1 F900 X42.97 Y57.82 E117.82431
G0 F2625 X42.97 Y58.527
G1 F900 X57.026 Y72.582 E118.48643
G0 F2625 X56.318 Y72.582
G1 F900 X42.97 Y59.234 E119.11523
G0 F2625 X42.97 Y59.941
G1 F900 X55.611 Y72.582 E119.71072
G0 F2625 X54.904 Y72.582
G1 F900 X42.97 Y60.648 E120.27291
G0 F2625 X42.97 Y61.355
G1 F900 X54.197 Y72.582 E120.80179
G0 F2625 X53.49 Y72.582
G1 F900 X42.97 Y62.062 E121.29737
G0 F2625 X42.97 Y62.769
G1 F900 X52.783 Y72.582 E121.75964
G0 F2625 X52.076 Y72.582
G1 F900 X42.97 Y63.476 E122.1886
G0 F2625 X42.97 Y64.184
G1 F900 X51.369 Y72.582 E122.58424
G0 F2625 X50.662 Y72.582
G1 F900 X42.97 Y64.891 E122.94657
G0 F2625 X42.97 Y65.598
G1 F900 X49.954 Y72.582 E123.27557
G0 F2625 X49.247 Y72.582
G1 F900 X42.97 Y66.305 E123.57127
G0 F2625 X42.97 Y67.012
G1 F900 X48.54 Y72.582 E123.83366
G0 F2625 X47.833 Y72.582
G1 F900 X42.97 Y67.719 E124.06274
G0 F2625 X42.97 Y68.426
G1 F900 X47.126 Y72.582 E124.25853
G0 F2625 X46.419 Y72.582
G1 F900 X42.97 Y69.133 E124.421
G0 F2625 X42.97 Y69.84
G1 F900 X45.712 Y72.582 E124.55017
G0 F2625 X45.005 Y72.582
G1 F900 X42.97 Y70.548 E124.64601
G0 F2625 X42.97 Y71.255
G1 F900 X44.298 Y72.582 E124.70855
G0 F2625 X43.591 Y72.582
G1 F900 X42.97 Y71.962 E124.73778
G1 F600 E122.98778
G0 F2625 X81.736 Y73.228
G0 X83.171 Y73.228
G0 X86.079 Y73.228
G0 X87.514 Y73.228
G0 X126.924 Y73.228
G0 X126.994 Y73.298
;TYPE:WALL-INNER
G1 F600 E124.73778
G1 F900 X87.494 Y73.298 E126.05354
G1 X87.494 Y33.798 E127.3693
G1 X126.994 Y33.798 E128.68506
G1 X126.994 Y73.298 E130.00082
G0 F2625 X127.494 Y73.798
;TYPE:WALL-OUTER
G1 F900 X86.994 Y73.798 E131.34988
G1 X86.994 Y33.298 E132.69895
G1 X127.494 Y33.298 E134.04802
G1 X127.494 Y73.798 E135.39709
G0 F2625 X127.244 Y73.798
G0 X126.924 Y73.228
G0 X126.504 Y72.808
;TYPE:SKIN
G1 F900 X87.984 Y72.808 E136.68021
G1 X87.984 Y34.288 E137.96332
G1 X126.504 Y34.288 E139.24644
G1 X126.504 Y72.808 E140.52955
G0 F2625 X126.278 Y35.061
G1 F900 X125.729 Y34.513 E140.55539
G0 F2625 X125.022 Y34.513
G1 F900 X126.278 Y35.768 E140.61454
G0 F2625 X126.278 Y36.476
G1 F900 X124.315 Y34.513 E140.70701
G0 F2625 X123.608 Y34.513
G1 F900 X126.278 Y37.183 E140.83279
G0 F2625 X126.278 Y37.89
G1 F900 X122.901 Y34.513 E140.99187
G0 F2625 X122.194 Y34.513
G1 F900 X126.278 Y38.597 E141.18426
G0 F2625 X126.278 Y39.304
G1 F900 X121.487 Y34.513 E141.40995
G0 F2625 X120.78 Y34.513
G1 F900 X126.278 Y40.011 E141.66895
G0 F2625 X126.278 Y40.718
G1 F900 X120.073 Y34.513 E141.96126
G0 F2625 X119.365 Y34.513
G1 F900 X126.278 Y41.425 E142.28689
G0 F2625 X126.278 Y42.132
G1 F900 X118.658 Y34.513 E142.64583
G0 F2625 X117.951 Y34.513
G1 F900 X126.278 Y42.84 E143.0381
G0 F2625 X126.278 Y43.547
G1 F900 X117.244 Y34.513 E143.46367
G0 F2625 X116.537 Y34.513
G1 F900 X126.278 Y44.254 E143.92255
G0 F2625 X126.278 Y44.961
G1 F900 X115.83 Y34.513 E144.41474
G0 F2625 X115.123 Y34.513
G1 F900 X126.278 Y45.668 E144.94023
G0 F2625 X126.278 Y46.375
G1 F900 X114.416 Y34.513 E145.49902
G0 F2625 X113.709 Y34.513
G1 F900 X126.278 Y47.082 E146.09112
G0 F2625 X126.278 Y47.789
G1 F900 X113.002 Y34.513 E146.71653
G0 F2625 X112.294 Y34.513
G1 F900 X126.278 Y48.496 E147.37526
G0 F2625 X126.278 Y49.204
G1 F900 X111.587 Y34.513 E148.06732
G0 F2625 X110.88 Y34.513
G1 F900 X126.278 Y49.911 E148.79269
G0 F2625 X126.278 Y50.618
G1 F900 X110.173 Y34.513 E149.55136
G0 F2625 X109.466 Y34.513
G1 F900 X126.278 Y51.325 E150.34334
G0 F2625 X126.278 Y52.032
G1 F900 X108.759 Y34.513 E151.16863
G0 F2625 X108.052 Y34.513
G1 F900 X126.278 Y52.739 E152.02722
G0 F2625 X126.278 Y53.446
G1 F900 X107.345 Y34.513 E152.91911
G0 F2625 X106.638 Y34.513
G1 F900 X126.278 Y54.153 E153.84431
G0 F2625 X126.278 Y54.86
G1 F900 X105.93 Y34.513 E154.80284
G0 F2625 X105.223 Y34.513
G1 F900 X126.278 Y55.567 E155.79468
G0 F2625 X126.278 Y56.275
G1 F900 X104.516 Y34.513 E156.81984
G0 F2625 X103.809 Y34.513
G1 F900 X126.278 Y56.982 E157.87831
G0 F2625 X126.278 Y57.689
G1 F900 X103.102 Y34.513 E158.97008
G0 F2625 X102.395 Y34.513
G1 F900 X126.278 Y58.396 E160.09516
G0 F2625 X126.278 Y59.103
G1 F900 X101.688 Y34.513 E161.25355
G0 F2625 X100.981 Y34.513
G1 F900 X126.278 Y59.81 E162.44524
G0 F2625 X126.278 Y60.517
G1 F900 X100.274 Y34.513 E163.67023
G0 F2625 X99.566 Y34.513
G1 F900 X126.278 Y61.224 E164.92856
G0 F2625 X126.278 Y61.931
G1 F900 X98.859 Y34.513 E166.22019
G0 F2625 X98.152 Y34.513
G1 F900 X126.278 Y62.639 E167.54515
G0 F2625 X126.278 Y63.346
G1 F900 X97.445 Y34.513 E168.90341
G0 F2625 X96.738 Y34.513
G1 F900 X126.278 Y64.053 E170.29498
G0 F2625 X126.278 Y64.76
G1 F900 X96.031 Y34.513 E171.71985
G0 F2625 X95.324 Y34.513
G1 F900 X126.278 Y65.467 E173.17803
G0 F2625 X126.278 Y66.174
G1 F900 X94.617 Y34.513 E174.66952
G0 F2625 X93.91 Y34.513
G1 F900 X126.278 Y66.881 E176.19431
G0 F2625 X126.278 Y67.588
G1 F900 X93.203 Y34.513 E177.75241
G0 F2625 X92.495 Y34.513
G1 F900 X126.278 Y68.295 E179.34383
G0 F2625 X126.278 Y69.003
G1 F900 X91.788 Y34.513 E180.96858
G0 F2625 X91.081 Y34.513
G1 F900 X126.278 Y69.71 E182.62664
G0 F2625 X126.278 Y70.417
G1 F900 X90.374 Y34.513 E184.31801
G0 F2625 X89.667 Y34.513
G1 F900 X126.278 Y71.124 E186.04268
G0 F2625 X126.278 Y71.831
G1 F900 X88.96 Y34.513 E187.80065
G0 F2625 X88.253 Y34.513
G1 F900 X126.278 Y72.538 E189.59193
G0 F2625 X125.616 Y72.583
G1 F900 X88.208 Y35.175 E191.35415
G0 F2625 X88.208 Y35.882
G1 F900 X124.908 Y72.583 E193.08303
G0 F2625 X124.201 Y72.583
G1 F900 X88.208 Y36.589 E194.77861
G0 F2625 X88.208 Y37.296
G1 F900 X123.494 Y72.583 E196.44089
G0 F2625 X122.787 Y72.583
G1 F900 X88.208 Y38.003 E198.06986
G0 F2625 X88.208 Y38.71
G1 F900 X122.08 Y72.583 E199.66552
G0 F2625 X121.373 Y72.583
G1 F900 X88.208 Y39.417 E201.22788
G0 F2625 X88.208 Y40.124
G1 F900 X120.666 Y72.583 E202.75694
G0 F2625 X119.959 Y72.583
G1 F900 X88.208 Y40.831 E204.25268
G0 F2625 X88.208 Y41.538
G1 F900 X119.252 Y72.583 E205.71513
G0 F2625 X118.545 Y72.583
G1 F900 X88.208 Y42.246 E207.14424
G0 F2625 X88.208 Y42.953
G1 F900 X117.837 Y72.583 E208.54003
G0 F2625 X117.13 Y72.583
G1 F900 X88.208 Y43.66 E209.90251
G0 F2625 X88.208 Y44.367
G1 F900 X116.423 Y72.583 E211.23168
G0 F2625 X115.716 Y72.583
G1 F900 X88.208 Y45.074 E212.52755
G0 F2625 X88.208 Y45.781
G1 F900 X115.009 Y72.583 E213.79012
G0 F2625 X114.302 Y72.583
G1 F900 X88.208 Y46.488 E215.01937
G0 F2625 X88.208 Y47.195
